public/avatar/body/81.svg

<svg xmlns:xlink="http://www.w3.org/1999/xlink" height="82" width="84.85" xmlns="http://www.w3.org/2000/svg"><g transform="translate(37.4 42.25)"><use height="38" transform="translate(-11.95 -17.45)" width="32.05" xlink:href="#a"/><use height="14.5" transform="translate(-5.6 6.1)" width="19.8" xlink:href="#b"/><use height="38.95" transform="translate(-12.45 -17.95)" width="33.05" xlink:href="#c"/></g><defs><path d="M27.35 7.4q2.15 4.15 3.55 8.75 1.45 4.7 1.15 9.5-.35 4.95-4.2 8.1-3.8 3.2-8.75 4.05l-2.6.2q-3.6 0-7.05-1.15-4.65-1.6-7.1-5.5Q-.2 27.4.05 23q.2-4.4 2-9.3Q3.85 8.75 7 5.05 10.1 1.3 14.7.1l1.8-.1q1.9.05 3.7.8 4.75 2.05 7.15 6.6" fill="#ff006a" fill-rule="evenodd" transform="translate(-.05)" id="d"/><path d="M27.35 7.4Q24.95 2.85 20.2.8 17.55-.3 14.7.1 10.1 1.3 7 5.05q-3.15 3.7-4.95 8.65-1.8 4.9-2 9.3-.25 4.4 2.3 8.35 2.45 3.9 7.1 5.5 4.65 1.55 9.65.95 4.95-.85 8.75-4.05 3.85-3.15 4.2-8.1.3-4.8-1.15-9.5-1.4-4.6-3.55-8.75Z" fill="none" stroke="#333" stroke-linecap="round" stroke-linejoin="round" transform="translate(.45 .5)" id="e"/><use height="38" width="32.05" xlink:href="#d" id="a"/><use height="38.95" width="33.05" xlink:href="#e" id="c"/><g id="b" fill-rule="evenodd"><path d="M1.7 20.4q-2.2-.4-5.15-3.75-1.4-1.55-2-4.2-.5-2.55.95-4.4Q-2.9 6.1-.1 6.1q2.5 0 4.6 2 1-1.25 2.35-1.6l3.6-.1q.8.15 1.9 1Q14.8 9.25 14 12.7q-.65 3.25-3.35 5.55-1.45 1.25-2.4 1.55l-3.6.4-2.95.2" fill="#bd004d" transform="translate(5.6 -6.1)"/><path d="m4.3 8.95.05.35.1-.35 1.7-1.35q1.75-.85 3.9-.4 2.3.45 3.1 2.2 1.2 2.8-.45 5.4-1 1.55-3.4 3.75-1.95 1.85-4.15 2.05H3.6q-2.2-.2-4.15-2.05-2.4-2.2-3.35-3.75-1.7-2.6-.5-5.4.8-1.75 3.1-2.2 2.15-.45 3.9.4l1.7 1.35" fill="#ffbdd8" transform="translate(5.6 -6.1)"/><path d="M1.1 19.65q-3.5-3.15-3.9-5.45-.35-2.1.75-3.35Q-.9 9.5 1.1 10.6l1.2 1.1 1.3.8 1.8-.2q.95-.15 1.7.7 1.1 1.3.65 3.45-.4 2.1-1.8 3.1Q3.85 21 .6 19.5l.5.15" fill="#ffa3c5" transform="translate(5.6 -6.1)"/><path d="M12.6 10.3q.3 2.1-1.4 2-1.75-.1-2.15-1.8-.45-2.15 1.4-2.1 1.85.05 2.15 1.9m-10-.8h.3q.35 1.5-1.15 1.55-1.45.05-2-1.1Q-1 8.3.6 8.2q1.55-.1 2 1.3" fill="#ffe8f1" transform="translate(5.6 -6.1)"/></g></defs></svg>

<?xml version="1.0" encoding="UTF-8" standalone="no"?>
<svg xmlns:xlink="http://www.w3.org/1999/xlink" height="82.0px" width="84.85px" xmlns="http://www.w3.org/2000/svg">
  <g transform="matrix(1.0, 0.0, 0.0, 1.0, 37.4, 42.25)">
    <use height="38.0" transform="matrix(1.0, 0.0, 0.0, 1.0, -11.95, -17.45)" width="32.05" xlink:href="#sprite0"/>
    <use height="14.5" transform="matrix(1.0, 0.0, 0.0, 1.0, -5.6, 6.1)" width="19.8" xlink:href="#shape1"/>
    <use height="38.95" transform="matrix(1.0, 0.0, 0.0, 1.0, -12.45, -17.95)" width="33.05" xlink:href="#sprite1"/>
  </g>
  <defs>
    <g id="sprite0" transform="matrix(1.0, 0.0, 0.0, 1.0, -0.05, 0.0)">
      <use height="38.0" transform="matrix(1.0, 0.0, 0.0, 1.0, 0.05, 0.0)" width="32.05" xlink:href="#shape0"/>
    </g>
    <g id="shape0" transform="matrix(1.0, 0.0, 0.0, 1.0, -0.05, 0.0)">
      <path d="M27.35 7.4 Q29.5 11.55 30.9 16.15 32.35 20.85 32.05 25.65 31.7 30.6 27.85 33.75 24.05 36.95 19.1 37.8 L16.5 38.0 Q12.9 38.0 9.45 36.85 4.8 35.25 2.35 31.35 -0.2 27.4 0.05 23.0 0.25 18.6 2.05 13.7 3.85 8.75 7.0 5.05 10.1 1.3 14.7 0.1 L16.5 0.0 Q18.4 0.05 20.2 0.8 24.95 2.85 27.35 7.4" fill="#ff006a" fill-rule="evenodd" stroke="none"/>
    </g>
    <g id="shape1" transform="matrix(1.0, 0.0, 0.0, 1.0, 5.6, -6.1)">
      <path d="M1.7 20.4 Q-0.5 20.0 -3.45 16.65 -4.85 15.1 -5.45 12.45 -5.95 9.9 -4.5 8.05 -2.9 6.1 -0.1 6.1 2.4 6.1 4.5 8.1 5.5 6.85 6.85 6.5 L10.45 6.4 Q11.25 6.55 12.35 7.4 14.8 9.25 14.0 12.7 13.35 15.95 10.65 18.25 9.2 19.5 8.25 19.8 L4.65 20.2 1.7 20.4" fill="#bd004d" fill-rule="evenodd" stroke="none"/>
      <path d="M4.3 8.95 L4.35 9.3 4.45 8.95 6.15 7.6 Q7.9 6.75 10.05 7.2 12.35 7.65 13.15 9.4 14.35 12.2 12.7 14.8 11.7 16.35 9.3 18.55 7.35 20.4 5.15 20.6 L3.6 20.6 Q1.4 20.4 -0.55 18.55 -2.95 16.35 -3.9 14.8 -5.6 12.2 -4.4 9.4 -3.6 7.65 -1.3 7.2 0.85 6.75 2.6 7.6 L4.3 8.95" fill="#ffbdd8" fill-rule="evenodd" stroke="none"/>
      <path d="M1.1 19.65 Q-2.4 16.5 -2.8 14.2 -3.15 12.1 -2.05 10.85 -0.9 9.5 1.1 10.6 L2.3 11.7 3.6 12.5 5.4 12.3 Q6.35 12.15 7.1 13.0 8.2 14.3 7.75 16.45 7.35 18.55 5.95 19.55 3.85 21.0 0.6 19.5 L1.1 19.65" fill="#ffa3c5" fill-rule="evenodd" stroke="none"/>
      <path d="M12.6 10.3 Q12.9 12.4 11.2 12.3 9.45 12.2 9.05 10.5 8.6 8.35 10.45 8.4 12.3 8.45 12.6 10.3" fill="#ffe8f1" fill-rule="evenodd" stroke="none"/>
      <path d="M2.6 9.5 L2.9 9.5 Q3.25 11.0 1.75 11.05 0.3 11.1 -0.25 9.95 -1.0 8.3 0.6 8.2 2.15 8.1 2.6 9.5" fill="#ffe8f1" fill-rule="evenodd" stroke="none"/>
    </g>
    <g id="sprite1" transform="matrix(1.0, 0.0, 0.0, 1.0, 0.45, 0.5)">
      <use height="38.95" transform="matrix(1.0, 0.0, 0.0, 1.0, -0.45, -0.5)" width="33.05" xlink:href="#shape2"/>
    </g>
    <g id="shape2" transform="matrix(1.0, 0.0, 0.0, 1.0, 0.45, 0.5)">
      <path d="M27.35 7.4 Q24.95 2.85 20.2 0.8 17.55 -0.3 14.7 0.1 10.1 1.3 7.0 5.05 3.85 8.75 2.05 13.7 0.25 18.6 0.05 23.0 -0.2 27.4 2.35 31.35 4.8 35.25 9.45 36.85 14.1 38.4 19.1 37.8 24.05 36.95 27.85 33.75 31.7 30.6 32.05 25.65 32.35 20.85 30.9 16.15 29.5 11.55 27.35 7.4 Z" fill="none" stroke="#333333" stroke-linecap="round" stroke-linejoin="round" stroke-width="1.0"/>
    </g>
  </defs>
</svg>
